exports/space-invader-Edge_Cuts.svg

<?xml version="1.0" encoding="UTF-8" standalone="no"?>
<svg
   version="1.1"
   width="95.3516mm"
   height="81.0768mm"
   viewBox="0.0000 0.0000 95.3516 81.0768"
   id="svg2"
   sodipodi:docname="space-invader-Edge_Cuts.svg"
   inkscape:version="1.4 (e7c3feb100, 2024-10-09)"
   xmlns:inkscape="http://www.inkscape.org/namespaces/inkscape"
   xmlns:sodipodi="http://sodipodi.sourceforge.net/DTD/sodipodi-0.dtd"
   xmlns="http://www.w3.org/2000/svg"
   xmlns:svg="http://www.w3.org/2000/svg">
  <defs
     id="defs2">
    <inkscape:path-effect
       effect="fillet_chamfer"
       id="path-effect2"
       is_visible="true"
       lpeversion="1"
       nodesatellites_param="F,0,0,1,0,0.79374999,0,1 @ F,0,0,1,0,0.79374999,0,1 @ F,0,0,1,0,0.79374999,0,1 @ F,0,0,1,0,0.79374999,0,1 @ F,0,0,1,0,0.79374999,0,1 @ F,0,0,1,0,0.79374999,0,1 @ F,0,0,1,0,0.79374999,0,1 @ F,0,0,1,0,0.79374999,0,1 @ F,0,0,1,0,0.79374999,0,1 @ F,0,0,1,0,0.79374999,0,1 @ F,0,0,1,0,0.79374999,0,1 @ F,0,0,1,0,0.79374999,0,1 @ F,0,0,1,0,0.79374999,0,1 @ F,0,0,1,0,0.79374999,0,1 @ F,0,0,1,0,0.79374999,0,1 @ F,0,0,1,0,0.79374999,0,1 @ F,0,0,1,0,0.79374999,0,1 @ F,0,0,1,0,0.79374999,0,1 @ F,0,0,1,0,0.79374999,0,1 @ F,0,0,1,0,0.79374999,0,1 @ F,0,0,1,0,0.79374999,0,1 @ F,0,0,1,0,0.79374999,0,1 @ F,0,0,1,0,0.79374999,0,1 @ F,0,0,1,0,0.79374999,0,1"
       radius="4"
       unit="px"
       method="auto"
       mode="F"
       chamfer_steps="1"
       flexible="false"
       use_knot_distance="true"
       apply_no_radius="true"
       apply_with_radius="true"
       only_selected="false"
       hide_knots="false" />
  </defs>
  <sodipodi:namedview
     id="namedview2"
     pagecolor="#ffffff"
     bordercolor="#666666"
     borderopacity="1.0"
     inkscape:showpageshadow="2"
     inkscape:pageopacity="0.0"
     inkscape:pagecheckerboard="0"
     inkscape:deskcolor="#d1d1d1"
     inkscape:document-units="mm"
     showgrid="false"
     inkscape:zoom="12.058405"
     inkscape:cx="166.68871"
     inkscape:cy="291.49792"
     inkscape:window-width="1920"
     inkscape:window-height="1064"
     inkscape:window-x="0"
     inkscape:window-y="0"
     inkscape:window-maximized="1"
     inkscape:current-layer="svg2" />
  <title
     id="title1">SVG Image created as space-invader-Edge_Cuts.svg date 2025/01/28 21:39:24 </title>
  <desc
     id="desc1">Image generated by PCBNEW </desc>
  <path
     style="fill:none;fill-opacity:1;stroke:#d0d2cd;stroke-width:0.05;stroke-linecap:round;stroke-linejoin:round;stroke-opacity:1"
     d="m 58.00375,4.8225 h 17.4625 A 0.79374999,0.79374999 45 0 1 76.26,5.61625 v 7.9375 a 0.79374999,0.79374999 45 0 0 0.79375,0.79375 h 17.4625 A 0.79374999,0.79374999 45 0 1 95.31,15.14125 v 36.5125 A 0.79374999,0.79374999 135 0 1 94.51625,52.4475 H 77.05375 A 0.79374999,0.79374999 135 0 0 76.26,53.24125 v 7.9375 a 0.79374999,0.79374999 45 0 0 0.79375,0.79375 h 17.4625 A 0.79374999,0.79374999 45 0 1 95.31,62.76625 v 17.4625 A 0.79374999,0.79374999 135 0 1 94.51625,81.0225 H 58.00375 A 0.79374999,0.79374999 45 0 1 57.21,80.22875 0.76266117,0.76266117 42.614057 0 0 56.41625,79.4985 H 38.95375 A 0.79374999,0.79374999 135 0 0 38.16,80.29225 0.76266117,0.76266117 137.38594 0 1 37.36625,81.0225 H 0.85374999 A 0.79374999,0.79374999 45 0 1 0.06,80.22875 V 62.76625 A 0.79374999,0.79374999 135 0 1 0.85374999,61.9725 H 18.31625 A 0.79374999,0.79374999 135 0 0 19.11,61.17875 v -7.9375 A 0.79374999,0.79374999 45 0 0 18.31625,52.4475 H 0.85374999 A 0.79374999,0.79374999 45 0 1 0.06,51.65375 V 15.14125 A 0.79374999,0.79374999 135 0 1 0.85374999,14.3475 H 18.31625 A 0.79374999,0.79374999 135 0 0 19.11,13.55375 V 5.61625 A 0.79374999,0.79374999 135 0 1 19.90375,4.8225 h 17.4625 A 0.79374999,0.79374999 135 0 0 38.16,4.02875 V 0.85374999 A 0.79374999,0.79374999 135 0 1 38.95375,0.06 h 17.4625 A 0.79374999,0.79374999 45 0 1 57.21,0.85374999 l 0,3.17500001 a 0.79374999,0.79374999 45 0 0 0.79375,0.79375 z"
     id="path1"
     inkscape:path-effect="#path-effect2"
     inkscape:original-d="m 57.21,4.8225 h 19.05 v 9.525 h 19.05 v 38.1 H 76.26 v 9.525 h 19.05 v 19.05 h -38.1 v -1.524 H 38.16 v 1.524 H 0.06 v -19.05 h 19.05 v -9.525 H 0.06 v -38.1 H 19.11 V 4.8225 H 38.16 V 0.06 h 19.05 z" />
</svg>

<?xml version="1.0" standalone="no"?>
 <!DOCTYPE svg PUBLIC "-//W3C//DTD SVG 1.1//EN" 
 "http://www.w3.org/Graphics/SVG/1.1/DTD/svg11.dtd"> 
<svg
  xmlns:svg="http://www.w3.org/2000/svg"
  xmlns="http://www.w3.org/2000/svg"
  xmlns:xlink="http://www.w3.org/1999/xlink"
  version="1.1"
  width="95.3516mm" height="81.0768mm" viewBox="0.0000 0.0000 95.3516 81.0768">
<title>SVG Image created as space-invader-Edge_Cuts.svg date 2025/01/29 20:30:24 </title>
  <desc>Image generated by PCBNEW </desc>
<g style="fill:#000000; fill-opacity:1.0000;stroke:#000000; stroke-opacity:1.0000;
stroke-linecap:round; stroke-linejoin:round;"
 transform="translate(0 0) scale(1 1)">
<path style="fill:none; 
stroke:#D0D2CD; stroke-width:0.0500; stroke-opacity:1; 
stroke-linecap:round; stroke-linejoin:round;fill:none"
d="M 57.2100,4.8225
76.2600,4.8225
76.2600,14.3475
95.3100,14.3475
95.3100,52.4475
76.2600,52.4475
76.2600,61.9725
95.3100,61.9725
95.3100,81.0225
55.4242,81.0226
55.4242,58.4007
39.9460,58.4007
39.9460,81.0226
38.1600,81.0225
0.0600,81.0225
0.0600,61.9725
19.1100,61.9725
19.1100,52.4475
0.0600,52.4475
0.0600,14.3475
19.1100,14.3475
19.1100,4.8225
38.1600,4.8225
38.1600,0.0600
57.2100,0.0600
Z" /> 
<path style="fill:none; 
stroke:#D0D2CD; stroke-width:0.0500; stroke-opacity:1; 
stroke-linecap:round; stroke-linejoin:round;fill:none"
d="M 57.2100,4.8225
76.2600,4.8225
76.2600,14.3475
95.3100,14.3475
95.3100,52.4475
76.2600,52.4475
76.2600,61.9725
95.3100,61.9725
95.3100,81.0225
55.4242,81.0226
55.4242,58.4007
39.9460,58.4007
39.9460,81.0226
38.1600,81.0225
0.0600,81.0225
0.0600,61.9725
19.1100,61.9725
19.1100,52.4475
0.0600,52.4475
0.0600,14.3475
19.1100,14.3475
19.1100,4.8225
38.1600,4.8225
38.1600,0.0600
57.2100,0.0600
Z" /> 
</g> 
</svg>
